projects/flag-game/flags/Morocco.svg

<svg viewBox="0 0 1000 667" xmlns="http://www.w3.org/2000/svg" xmlns:xlink="http://www.w3.org/1999/xlink"><clipPath id="a"><path d="m0 0h1000v666.71875h-1000zm0 0"/></clipPath><g clip-path="url(#a)"><path d="m0 666.667969v-666.667969h1000v666.667969zm0 0" fill="#c1272d" fill-rule="evenodd"/></g><path d="m499.96875 222.222656-24.9375 76.980469-80.863281.070313 65.378906 47.570312-24.925781 77.042969c16.84375-12.359375 47.355468-34.503907 65.378906-47.570313l65.453125 47.539063-25-76.980469 65.378906-47.640625h-80.800781zm0 52.707032 7.945312 24.273437-15.828124.03125zm-30.246094 40.554687-4.863281 15.101563-20.660156-15.03125zm17.082032 0h26.390624l8.160157 25.140625-21.355469 15.554688-21.355469-15.554688zm43.472656 0h25.484375l-20.589844 15.101563zm-56.910156 41.460937 12.847656 9.269532-20.660156 15.035156zm53.335937 0 7.8125 24.304688-20.625-15v-.035156zm0 0" fill="#006233" fill-rule="evenodd"/></svg>

<?xml version="1.0" encoding="UTF-8"?>
<svg xmlns="http://www.w3.org/2000/svg" xmlns:xlink="http://www.w3.org/1999/xlink" viewBox="0 0 1000 667" version="1.1">
<defs>
<clipPath id="clip1">
  <path d="M 0 0 L 1000 0 L 1000 666.71875 L 0 666.71875 Z M 0 0 "/>
</clipPath>
</defs>
<g id="surface815">
<g clip-path="url(#clip1)" clip-rule="nonzero">
<path style=" stroke:none;fill-rule:evenodd;fill:rgb(75.68512%,15.293884%,17.64679%);fill-opacity:1;" d="M 0 666.667969 L 0 0 L 1000 0 L 1000 666.667969 Z M 0 666.667969 "/>
</g>
<path style=" stroke:none;fill-rule:evenodd;fill:rgb(0%,38.430786%,19.999695%);fill-opacity:1;" d="M 499.96875 222.222656 L 475.03125 299.203125 L 394.167969 299.273438 L 459.546875 346.84375 L 434.621094 423.886719 C 451.464844 411.527344 481.976562 389.382812 500 376.316406 L 565.453125 423.855469 L 540.453125 346.875 L 605.832031 299.234375 L 525.03125 299.234375 Z M 499.96875 274.929688 L 507.914062 299.203125 L 492.085938 299.234375 Z M 469.722656 315.484375 L 464.859375 330.585938 L 444.199219 315.554688 Z M 486.804688 315.484375 L 513.195312 315.484375 L 521.355469 340.625 L 500 356.179688 L 478.644531 340.625 Z M 530.277344 315.484375 L 555.761719 315.484375 L 535.171875 330.585938 Z M 473.367188 356.945312 L 486.214844 366.214844 L 465.554688 381.25 Z M 526.703125 356.945312 L 534.515625 381.25 L 513.890625 366.25 L 513.890625 366.214844 Z M 526.703125 356.945312 "/>
</g>
</svg>
